src/images/app-icons/dark-theme/WatsonTalentFrameworks.svg

<svg xmlns="http://www.w3.org/2000/svg" viewBox="0 0 32 32"><defs><linearGradient id="WatsonTalentFrameworks_svg__a" x1="-3502.5" y1="3450.5" x2="-3497.5" y2="3450.5" gradientTransform="matrix(1 0 0 -1 3516 3464)" gradientUnits="userSpaceOnUse"><stop offset="0" stop-opacity="0"/><stop offset=".9"/></linearGradient><linearGradient id="WatsonTalentFrameworks_svg__c" y1="32" x2="32" gradientUnits="userSpaceOnUse"><stop offset=".1" stop-color="#be95ff"/><stop offset=".9" stop-color="#4589ff"/></linearGradient><mask id="WatsonTalentFrameworks_svg__b" x="0" y="0" width="32" height="32" maskUnits="userSpaceOnUse"><path d="M27 22.142V19a2 2 0 00-2-2h-8v-6h-2v6H7a2 2 0 00-2 2v3.142a4 4 0 102 0V19h8v3h-3v8h8v-8h-3v-3h8v3.142a4 4 0 102 0zM8 26a2 2 0 11-2-2 2 2 0 012 2zm10 2h-4v-4h4zm8 0a2 2 0 112-2 2 2 0 01-2 2z" fill="#fff"/><path transform="rotate(-90 16 13.5)" fill="url(#WatsonTalentFrameworks_svg__a)" d="M13.5 1.5h5v24h-5z" data-name="Gradients (black)"/></mask></defs><g data-name="Layer 2"><g data-name="Dark theme icons"><g mask="url(#WatsonTalentFrameworks_svg__b)"><path fill="url(#WatsonTalentFrameworks_svg__c)" d="M0 0h32v32H0z"/></g><path d="M26 12H6a2 2 0 01-2-2V4a2 2 0 012-2h20a2 2 0 012 2v6a2 2 0 01-2 2zM6 4v6h20V4z" fill="#f4f4f4"/></g></g></svg>

<svg xmlns="http://www.w3.org/2000/svg" xmlns:xlink="http://www.w3.org/1999/xlink" viewBox="0 0 32 32"><defs><style>.cls-1{fill:#fff;}.cls-2{fill:url(#linear-gradient);}.cls-3{mask:url(#mask);}.cls-4{fill:url(#linear-gradient-2);}.cls-5{fill:#f4f4f4;}</style><linearGradient id="linear-gradient" x1="-3502.5" y1="3450.5" x2="-3497.5" y2="3450.5" gradientTransform="matrix(1, 0, 0, -1, 3516, 3464)" gradientUnits="userSpaceOnUse"><stop offset="0" stop-opacity="0"/><stop offset="0.9"/></linearGradient><mask id="mask" x="0" y="0" width="32" height="32" maskUnits="userSpaceOnUse"><path class="cls-1" d="M27,22.142V19a2,2,0,0,0-2-2H17V11H15v6H7a2,2,0,0,0-2,2v3.142a4,4,0,1,0,2,0V19h8v3H12v8h8V22H17V19h8v3.142a4,4,0,1,0,2,0ZM8,26a2,2,0,1,1-2-2A2,2,0,0,1,8,26Zm10,2H14V24h4Zm8,0a2,2,0,1,1,2-2A2,2,0,0,1,26,28Z"/><g id="Gradients_black_" data-name="Gradients (black)"><rect class="cls-2" x="13.5" y="1.5" width="5" height="24" transform="translate(2.5 29.5) rotate(-90)"/></g></mask><linearGradient id="linear-gradient-2" y1="32" x2="32" gradientUnits="userSpaceOnUse"><stop offset="0.1" stop-color="#be95ff"/><stop offset="0.9" stop-color="#4589ff"/></linearGradient></defs><g id="Layer_2" data-name="Layer 2"><g id="Dark_theme_icons" data-name="Dark theme icons"><g class="cls-3"><rect class="cls-4" width="32" height="32"/></g><path class="cls-5" d="M26,12H6a2,2,0,0,1-2-2V4A2,2,0,0,1,6,2H26a2,2,0,0,1,2,2v6A2,2,0,0,1,26,12ZM6,4v6H26V4Z"/></g></g></svg>
